X: 215
T: Bakışın Âhuya Dönmüş
C: Ömer Dilek
O: Turkey
F: http://compmusic.upf.edu/node/140
N: saba--sarki--aksak--bakisin_ahuya--omer_dilek
N: makam= saba
N: form= sarki
N: usul= aksak = 9/8
M: 9/8
L: 1/16
K: C _2/4B _3/4d  
Q: 1/4=108
%%MIDI tuningsystem comma53
A4 z2AB c4 cdcd cB | ed2cB2 cdcB ABc4cB  | 
w:  *  Ba kı şın  â  |  *  *  *  *  hu ya  dön *  *  *  müş   | 
c4 z2cd e2f2 g2f2 e2 | d3cB2 {f}edc4cd cBAB  | 
w:  *  gü lü şün  *  öm  |  *  *  *  *  re  be del   SAZ  | 
A4 z2AB c4 cdcd cB | ed2cB2 cdcB ABc4cB  | 
w:  *  Ba kı şın  â  |  *  *  *  *  hu ya  dön *  *  *  müş   | 
c4 z2cd e2f2 g2f2 e2 | d3cB2 {f}edc4cd cBAB  | 
w:  *  gü lü şün  *  öm  |  *  *  *  *  re  be del   SAZ  | 
c4 z2cd e2f2 g2_7/8a2 gf | f4f2 eded dcc2 d2cB  | 
w:  *  Ba na  gel  *  sev  |  *  *  gi lim_ ar *  *  *  tık   | 
B4 z2cd d2c2 d2c2 B2 | ed2ccB BAA4cd cBAB  | 
w:  *  ba na  gel  *  sen   |  *  *  *  *  *  ba na  gel   SAZ  | 
c4 z2cd e2f2 g2_7/8a2 gf | f4f2 eded dcc2 d2cB  | 
w:  *  Ba na  gel  *  sev  |  *  *  gi lim_ ar *  *  *  tık   | 
B4 z2cd d2c2 d2c2 B2 | ed2ccB BAA4cd cBAB  | 
w:  *  ba na  gel  *  sen   |  *  *  *  *  *  ba na  gel   SAZ  | 
A4 z2Ae e4 (3g^fga2 e2 | e2 {f}e=ded cde4e2 ^f2g2  | 
w:  *  A yı rır  san  |  *  *  *  *  *  *  ma  gö nül den   | 
e2{f}e=d z2e^f gagf a4 gf | b2 aggf fee4ef e=dcd  | 
w:  *  *  *  *  se ni  bir  *  *  *  lah  |  *  *  *  *  *  za  e cel   SAZ  | 
e4 z2Ae e4 (3g^fga2 e2 | e2 e=ded cde4e2 ^f2g2  | 
w:  *  A yı rır  san  |  *  *  *  *  *  ma  gö nül den   | 
e2{f}e=d c2c_3/4d e2f2 g2_7/8a2 gf | \
w:  *  *  *  *  *  se ni  bir  *  lah  | 
_7/8a2 gfed cBc4cd cBAB  | 
w:  *  *  *  *  *  za  e cel   SAZ  | 
c4 z2cd e2f2 g2_7/8a2 gf | f4f2 eded dcc2 d2cB  | 
w:  *  Ba na  gel  *  sev  |  *  *  gi lim_ ar *  *  *  tık   | 
B4 z2cd d2c2 d2c2 B2 | ed2ccB BAA4|
w:  *  ba na  gel  *  sen   |  *  *  *  *  *  ba na  gel    | 


